X:48
T:The Earthworm
N:from 'Song Stories For Small Australians' 1895
N:New South Wales Kindergarten Association
N: Copyright Expired in Australia
C:Edith Walker and Jeanie Dane  
C:Australian Kindergarten Association
S:https://nla.obj-198367352
Q:"adagio" 1/4=90
R:Lullaby
M:4/4
L:1/8
K:Eb
V:1 
G|G G/ G/ G3/2 B/ B2F F/ G/ | E E F3/2 F/G2 G2 | A/ c3/2 F/ A3/2 G/ B3/2 E E/ E/ | 
w: Way down in the dark cool earth bed, Where the seeds are fast a-sleep, The bu-sy lit-tle earth* worm digs his
w:No eyes has this lit-tle wor-ker, for he ne-ver needs the light, For he plods a- way in dark-* ness, and 
F/ C3/2 D D F7/2 B,/|E/ F3/2 D B E/ G3/2 B3/2 G/ | c3/2 G/ G3/2 G/ B3 c/d/
w:burr-ow dark and deep; He car-ries leaves and gra-*sses, to line the walls so strong that they
w:creeps on ground at night; He makes a place for the root-lets to plant their ten-der feet, And he
e B c3/2 G/ (GB) B3/2 G/ | E/ C3/2 D3/2 B,/E2z2 :| 
w:may not hurt his bo-*dy, So slen-der and so long
w:opens a way that ra-in drops, May wa ken seeds from sleep 
N: V:2 clef=bass octave=-1
N: [I: MIDI=program 44] !merge! z|   _E,2 _E,2 _E,2 _E,2 | _B,2 _B,2 _B,2 _B,2|
N: _A,2 _A,2 _A,2 _A,2  |_B,2 _B,2 _B,2 _B,2 | 
N:  _E,2 _E,2 _E,2 _E,2 | _B,2 _B,2 _B,2 _B,2| 
N:  _A,2 _A,2 _A,2 _A,2    | _B,2 _B,2 _B,2 _B,2:|
N: 

%%newpage

